art/logos/triforce.svg

<svg height="156.804" viewBox="0 0 817.76675 344.9688" width="371.71216" xmlns="http://www.w3.org/2000/svg" xmlns:xlink="http://www.w3.org/1999/xlink"><clipPath id="a"><path d="m0 595.276h841.89v-595.276h-841.89z"/></clipPath><g clip-path="url(#a)" fill="#6b4386" transform="matrix(1.3333333 0 0 -1.3333333 -139.35826 567.53439)"><path d="m0 0c2.206-3.814 42.042-72.814 42.042-72.814h16.127l-58.169 100.746-58.157-100.746h16.129s39.622 68.62 42.028 72.814" transform="translate(414.8081 397.7188)"/><path d="m0 0h-16.142s17.014-29.465 18.709-32.399h-250.363c2.144 3.713 18.696 32.399 18.696 32.399h-16.116l-26.772-46.359h298.748z" transform="translate(537.4287 213.2832)"/><path d="m0 0c0-.835.063-35.729.063-36.545h-41.792c0 .816-.063 35.71-.063 36.545zm2.492 16.365h-46.776c-8.912 0-19.058-9.086-19.058-17.051v-35.69c0-7.971 10.146-17.058 19.058-17.058h46.776c8.9 0 19.045 9.087 19.045 17.058v35.69c0 7.965-10.145 17.051-19.045 17.051" transform="translate(448.7227 300.5313)"/><path d="m0 0h-41.917c-8.699 0-18.608-8.974-18.608-16.833v-36.114c0-7.858 9.909-16.826 18.608-16.826h41.917c8.7 0 18.621 8.968 18.621 16.826v11.33l-19.817.025v-11.71h-38.664v36.825h38.664v-10.364l19.817.031v9.977c0 7.859-9.921 16.833-18.621 16.833" transform="translate(623.0186 317.1206)"/><path d="m0 0h3.029c8.737 0 17.001 7.472 17.001 15.38v14.003c0 7.909-8.264 15.381-17.001 15.381l-59.316.012v-69.81h20.366v54.48h33.254c2.692 0 3.64-2.063 3.64-3.833v-6.949c0-2.156-1.297-3.352-3.64-3.352h-24.031l.386-14.838 30.674-25.477h26.699s-26.96 21.7-31.061 25.003" transform="translate(248.377 272.3691)"/><path d="m0 0h3.053c8.725 0 16.988 7.466 16.988 15.374v14.003c0 7.909-8.263 15.381-16.988 15.381l-59.316.012v-69.811h20.354v54.487h33.254c2.692 0 3.639-2.07 3.639-3.839v-6.949c0-2.156-1.297-3.346-3.639-3.346h-24.031l.387-14.845 30.661-25.477h26.71s-26.959 21.7-31.072 25.01" transform="translate(533.752 272.1387)"/><path d="m0 0h-82.162v-16.091h30.324v-53.57h21.513v53.57h30.325z" transform="translate(186.6807 317.1206)"/><path d="m302.583 317.089h-21.563v-69.723h21.563z"/><path d="m0 0v16.091h-65.498v-69.78h21.575v27.234h37.591v16.073h-37.591v10.382z" transform="translate(379.8965 301.0298)"/><path d="m0 0h-47.612v11.137h33.204v16.072h-33.204v10.382h46.852v16.091h-68.876v-69.791l69.636.018z" transform="translate(717.8438 263.4385)"/><path d="m0 0-9.298 12.906-1.184-.529-.025-12.377h-4.425v17.568h6.93l7.292-10.264 1.209.405.037 9.859h4.438v-17.568z" transform="translate(491.5234 220.9736)"/><path d="m0 0-9.298 12.906-1.196-.529-.013-12.377h-4.412v17.568h6.93l7.279-10.264 1.209.405.037 9.859h4.438v-17.568z" transform="translate(543.3359 220.9736)"/><path d="m0 0-9.298 12.906-1.183-.529-.026-12.377h-4.425v17.568h6.943l7.279-10.264 1.222.405.024 9.859h4.45v-17.568z" transform="translate(633.4004 220.9736)"/><path d="m510.282 238.542h4.923v-17.568h-4.923z"/><path d="m0 0v-13.966h-5.146v13.966h-7.043v3.603h18.945v-3.603z" transform="translate(571.8906 234.9395)"/><path d="m0 0v-3.583h12.04v-3.122h-12.04v-3.658h12.015v-3.603h-16.889v17.569h16.977v-3.603z" transform="translate(594.9248 234.9395)"/><path d="m0 0v8.918c0 2.829-1.707 4.238-4.437 4.238h-15.804v-17.568h15.654c3.079 0 4.587 1.384 4.587 4.412m-5.011-.81h-10.494v10.363h10.494z" transform="translate(670.8174 225.3857)"/><path d="m0 0v9.049c0 3.097-1.296 4.263-4.35 4.263h-10.594c-3.017 0-4.388-1.209-4.388-4.263v-9.049c0-2.973 1.434-4.257 4.388-4.257h10.594c2.979 0 4.35 1.259 4.35 4.257m-4.749-.654h-9.771v10.363h9.771z" transform="translate(701.7031 225.2305)"/><path d="m0 0h-15.592v3.808h14.832v3.763h-10.308c-2.78 0-4.388.693-4.388 2.998v4.954c0 2.039 1.297 2.936 5.597 2.936h12.277v-3.783h-13.237v-3.808h10.732c2.954 0 3.914-1.227 3.914-3.209v-5.036c0-1.508-1.098-2.623-3.827-2.623" transform="translate(331.5366 220.5439)"/><path d="m0 0h-11.205c-2.966 0-4.4 1.378-4.4 4.5v9.522c0 3.272 1.272 4.462 4.562 4.462h15.181v-3.783h-14.957v-10.887h10.507v3.44h-7.216v3.297h11.89v-6.051c0-3.122-1.433-4.5-4.362-4.5" transform="translate(396.7104 220.5186)"/><path d="m0 0v15.312c0 1.913-1.222 3.147-3.901 3.147h-11.854c-2.68 0-3.938-1.234-3.938-3.147v-15.312h4.761v7.26h10.183v-7.26zm-4.749 10.625h-10.183v4.051h10.183z" transform="translate(433.8906 220.5439)"/><path d="m0 0v3.776h-15.168c-3.304 0-4.575-1.183-4.575-4.474v-9.51c0-3.122 1.446-4.506 4.4-4.506h15.28l.038 3.82h-14.919v3.795h10.781v3.297h-10.781v3.802z" transform="translate(368.2178 235.2139)"/><path d="m0 0c0-1.694-1.371-3.072-3.079-3.072-1.694 0-3.078 1.378-3.078 3.072 0 1.708 1.384 3.085 3.078 3.085 1.708 0 3.079-1.377 3.079-3.085" transform="translate(294.7803 229.748)"/><path d="m0 0c0-1.694-1.384-3.072-3.079-3.072s-3.079 1.378-3.079 3.072c0 1.708 1.384 3.085 3.079 3.085s3.079-1.377 3.079-3.085" transform="translate(457.7344 229.748)"/><path d="m0 0-9.298 13.105-1.196-.542-.013-12.563h-4.425v17.836h6.931l7.291-10.414 1.209.405.037 10.009h4.45v-17.836z" transform="translate(136.3633 220.8555)"/><path d="m0 0v9.049c0 3.097-1.296 4.263-4.362 4.263h-10.595c-3.004 0-4.387-1.216-4.387-4.263v-9.049c0-2.973 1.433-4.263 4.387-4.263h10.595c2.978 0 4.362 1.265 4.362 4.263m-4.762-.661h-9.771v10.364h9.771z" transform="translate(268.0703 225.1182)"/><path d="m0 0c-3.141 0-4.998 1.483-4.998 4.499v8.726c0 2.841 2.057 4.611 5.186 4.611h13.411v-3.658h-13.786v-10.52h13.786v-3.658z" transform="translate(224.3838 220.8555)"/><path d="m0 0v9.067l-.013 4.606h-1.757l-4.076-13.673h-4.536l-4.101 13.673h-1.72l.012-13.673h-4.624v17.836h8.488l3.366-12.602h1.707l3.39 12.602h8.45v-17.836z" transform="translate(204.8032 220.8555)"/><path d="m0 0v14.795c0 1.845-1.234 3.041-3.914 3.041h-11.841c-2.68 0-3.951-1.196-3.951-3.041v-14.795h4.762v7.018h10.183v-7.018zm-4.362 10.264h-10.196v3.914h10.196z" transform="translate(172.6338 220.8555)"/></g></svg>

<?xml version="1.0" encoding="UTF-8" standalone="no"?>
<!-- Created with Inkscape (http://www.inkscape.org/) -->

<svg
   version="1.1"
   id="svg2"
   xml:space="preserve"
   width="371.71216"
   height="156.804"
   viewBox="0 0 817.76675 344.9688"
   sodipodi:docname="triforce.svg"
   inkscape:version="1.1.2 (0a00cf5339, 2022-02-04)"
   xmlns:inkscape="http://www.inkscape.org/namespaces/inkscape"
   xmlns:sodipodi="http://sodipodi.sourceforge.net/DTD/sodipodi-0.dtd"
   xmlns="http://www.w3.org/2000/svg"
   xmlns:svg="http://www.w3.org/2000/svg"><defs
     id="defs6"><clipPath
       clipPathUnits="userSpaceOnUse"
       id="clipPath16"><path
         d="M 0,595.276 H 841.89 V 0 H 0 Z"
         id="path14" /></clipPath></defs><sodipodi:namedview
     id="namedview4"
     pagecolor="#ffffff"
     bordercolor="#111111"
     borderopacity="1"
     inkscape:pageshadow="0"
     inkscape:pageopacity="0"
     inkscape:pagecheckerboard="1"
     showgrid="false"
     scale-x="2.2"
     fit-margin-top="0"
     fit-margin-left="0"
     fit-margin-right="0"
     fit-margin-bottom="0"
     inkscape:zoom="2.2023397"
     inkscape:cx="351.44442"
     inkscape:cy="148.25143"
     inkscape:window-width="1366"
     inkscape:window-height="703"
     inkscape:window-x="0"
     inkscape:window-y="0"
     inkscape:window-maximized="1"
     inkscape:current-layer="g8" /><g
     id="g8"
     inkscape:groupmode="layer"
     inkscape:label="Triforce-logo"
     transform="matrix(1.3333333,0,0,-1.3333333,-139.35826,567.53439)"><g
       id="g10"
       style="fill:#6b4386;fill-opacity:1"><g
         id="g12"
         clip-path="url(#clipPath16)"
         style="fill:#6b4386;fill-opacity:1"><g
           id="g18"
           transform="translate(414.8081,397.7188)"
           style="fill:#6b4386;fill-opacity:1"><path
             d="M 0,0 C 2.206,-3.814 42.042,-72.814 42.042,-72.814 H 58.169 L 0,27.932 -58.157,-72.814 h 16.129 c 0,0 39.622,68.62 42.028,72.814"
             style="fill:#6b4386;fill-opacity:1;fill-rule:nonzero;stroke:none"
             id="path20" /></g><g
           id="g22"
           transform="translate(537.4287,213.2832)"
           style="fill:#6b4386;fill-opacity:1"><path
             d="m 0,0 h -16.142 c 0,0 17.014,-29.465 18.709,-32.399 H -247.796 C -245.652,-28.686 -229.1,0 -229.1,0 h -16.116 l -26.772,-46.359 H 26.76 Z"
             style="fill:#6b4386;fill-opacity:1;fill-rule:nonzero;stroke:none"
             id="path24" /></g><g
           id="g26"
           transform="translate(448.7227,300.5313)"
           style="fill:#6b4386;fill-opacity:1"><path
             d="m 0,0 c 0,-0.835 0.063,-35.729 0.063,-36.545 h -41.792 c 0,0.816 -0.063,35.71 -0.063,36.545 z m 2.492,16.365 h -46.776 c -8.912,0 -19.058,-9.086 -19.058,-17.051 v -35.69 c 0,-7.971 10.146,-17.058 19.058,-17.058 H 2.492 c 8.9,0 19.045,9.087 19.045,17.058 v 35.69 c 0,7.965 -10.145,17.051 -19.045,17.051"
             style="fill:#6b4386;fill-opacity:1;fill-rule:nonzero;stroke:none"
             id="path28" /></g><g
           id="g30"
           transform="translate(623.0186,317.1206)"
           style="fill:#6b4386;fill-opacity:1"><path
             d="m 0,0 h -41.917 c -8.699,0 -18.608,-8.974 -18.608,-16.833 v -36.114 c 0,-7.858 9.909,-16.826 18.608,-16.826 H 0 c 8.7,0 18.621,8.968 18.621,16.826 v 11.33 l -19.817,0.025 v -11.71 H -39.86 v 36.825 h 38.664 v -10.364 l 19.817,0.031 v 9.977 C 18.621,-8.974 8.7,0 0,0"
             style="fill:#6b4386;fill-opacity:1;fill-rule:nonzero;stroke:none"
             id="path32" /></g><g
           id="g34"
           transform="translate(248.377,272.3691)"
           style="fill:#6b4386;fill-opacity:1"><path
             d="M 0,0 H 3.029 C 11.766,0 20.03,7.472 20.03,15.38 v 14.003 c 0,7.909 -8.264,15.381 -17.001,15.381 l -59.316,0.012 v -69.81 h 20.366 v 54.48 h 33.254 c 2.692,0 3.64,-2.063 3.64,-3.833 v -6.949 c 0,-2.156 -1.297,-3.352 -3.64,-3.352 H -26.698 L -26.312,0.474 4.362,-25.003 h 26.699 c 0,0 -26.96,21.7 -31.061,25.003"
             style="fill:#6b4386;fill-opacity:1;fill-rule:nonzero;stroke:none"
             id="path36" /></g><g
           id="g38"
           transform="translate(533.752,272.1387)"
           style="fill:#6b4386;fill-opacity:1"><path
             d="m 0,0 h 3.053 c 8.725,0 16.988,7.466 16.988,15.374 v 14.003 c 0,7.909 -8.263,15.381 -16.988,15.381 l -59.316,0.012 v -69.811 h 20.354 v 54.487 h 33.254 c 2.692,0 3.639,-2.07 3.639,-3.839 v -6.949 c 0,-2.156 -1.297,-3.346 -3.639,-3.346 H -26.686 L -26.299,0.467 4.362,-25.01 h 26.71 C 31.072,-25.01 4.113,-3.31 0,0"
             style="fill:#6b4386;fill-opacity:1;fill-rule:nonzero;stroke:none"
             id="path40" /></g><g
           id="g42"
           transform="translate(186.6807,317.1206)"
           style="fill:#6b4386;fill-opacity:1"><path
             d="m 0,0 h -82.162 v -16.091 h 30.324 v -53.57 h 21.513 v 53.57 H 0 Z"
             style="fill:#6b4386;fill-opacity:1;fill-rule:nonzero;stroke:none"
             id="path44" /></g><path
           d="M 302.583,317.089 H 281.02 v -69.723 h 21.563 z"
           style="fill:#6b4386;fill-opacity:1;fill-rule:nonzero;stroke:none"
           id="path46" /><g
           id="g48"
           transform="translate(379.8965,301.0298)"
           style="fill:#6b4386;fill-opacity:1"><path
             d="m 0,0 v 16.091 h -65.498 v -69.78 h 21.575 v 27.234 h 37.591 v 16.073 H -43.923 V 0 Z"
             style="fill:#6b4386;fill-opacity:1;fill-rule:nonzero;stroke:none"
             id="path50" /></g><g
           id="g52"
           transform="translate(717.8438,263.4385)"
           style="fill:#6b4386;fill-opacity:1"><path
             d="m 0,0 h -47.612 v 11.137 h 33.204 V 27.209 H -47.612 V 37.591 H -0.76 V 53.682 H -69.636 V -16.109 L 0,-16.091 Z"
             style="fill:#6b4386;fill-opacity:1;fill-rule:nonzero;stroke:none"
             id="path54" /></g><g
           id="g64"
           transform="translate(491.5234,220.9736)"
           style="fill:#6b4386;fill-opacity:1"><path
             d="M 0,0 -9.298,12.906 -10.482,12.377 -10.507,0 h -4.425 v 17.568 h 6.93 L -0.71,7.304 0.499,7.709 0.536,17.568 H 4.974 V 0 Z"
             style="fill:#6b4386;fill-opacity:1;fill-rule:nonzero;stroke:none"
             id="path66" /></g><g
           id="g68"
           transform="translate(543.3359,220.9736)"
           style="fill:#6b4386;fill-opacity:1"><path
             d="M 0,0 -9.298,12.906 -10.494,12.377 -10.507,0 h -4.412 v 17.568 h 6.93 L -0.71,7.304 0.499,7.709 0.536,17.568 H 4.974 V 0 Z"
             style="fill:#6b4386;fill-opacity:1;fill-rule:nonzero;stroke:none"
             id="path70" /></g><g
           id="g72"
           transform="translate(633.4004,220.9736)"
           style="fill:#6b4386;fill-opacity:1"><path
             d="M 0,0 -9.298,12.906 -10.481,12.377 -10.507,0 h -4.425 v 17.568 h 6.943 L -0.71,7.304 0.512,7.709 0.536,17.568 h 4.45 L 4.986,0 Z"
             style="fill:#6b4386;fill-opacity:1;fill-rule:nonzero;stroke:none"
             id="path74" /></g><path
           d="m 510.282,238.542 h 4.923 v -17.568 h -4.923 z"
           style="fill:#6b4386;fill-opacity:1;fill-rule:nonzero;stroke:none"
           id="path76" /><g
           id="g78"
           transform="translate(571.8906,234.9395)"
           style="fill:#6b4386;fill-opacity:1"><path
             d="M 0,0 V -13.966 H -5.146 V 0 h -7.043 V 3.603 H 6.756 V 0 Z"
             style="fill:#6b4386;fill-opacity:1;fill-rule:nonzero;stroke:none"
             id="path80" /></g><g
           id="g82"
           transform="translate(594.9248,234.9395)"
           style="fill:#6b4386;fill-opacity:1"><path
             d="M 0,0 V -3.583 H 12.04 V -6.705 H 0 v -3.658 h 12.015 v -3.603 H -4.874 V 3.603 H 12.103 V 0 Z"
             style="fill:#6b4386;fill-opacity:1;fill-rule:nonzero;stroke:none"
             id="path84" /></g><g
           id="g86"
           transform="translate(670.8174,225.3857)"
           style="fill:#6b4386;fill-opacity:1"><path
             d="m 0,0 v 8.918 c 0,2.829 -1.707,4.238 -4.437,4.238 H -20.241 V -4.412 H -4.587 C -1.508,-4.412 0,-3.028 0,0 M -5.011,-0.81 H -15.505 V 9.553 h 10.494 z"
             style="fill:#6b4386;fill-opacity:1;fill-rule:nonzero;stroke:none"
             id="path88" /></g><g
           id="g90"
           transform="translate(701.7031,225.2305)"
           style="fill:#6b4386;fill-opacity:1"><path
             d="m 0,0 v 9.049 c 0,3.097 -1.296,4.263 -4.35,4.263 h -10.594 c -3.017,0 -4.388,-1.209 -4.388,-4.263 V 0 c 0,-2.973 1.434,-4.257 4.388,-4.257 H -4.35 C -1.371,-4.257 0,-2.998 0,0 M -4.749,-0.654 H -14.52 V 9.709 h 9.771 z"
             style="fill:#6b4386;fill-opacity:1;fill-rule:nonzero;stroke:none"
             id="path92" /></g><g
           id="g94"
           transform="translate(331.5366,220.5439)"
           style="fill:#6b4386;fill-opacity:1"><path
             d="M 0,0 H -15.592 V 3.808 H -0.76 v 3.763 h -10.308 c -2.78,0 -4.388,0.693 -4.388,2.998 v 4.954 c 0,2.039 1.297,2.936 5.597,2.936 H 2.418 v -3.783 h -13.237 v -3.808 h 10.732 c 2.954,0 3.914,-1.227 3.914,-3.209 V 2.623 C 3.827,1.115 2.729,0 0,0"
             style="fill:#6b4386;fill-opacity:1;fill-rule:nonzero;stroke:none"
             id="path96" /></g><g
           id="g98"
           transform="translate(396.7104,220.5186)"
           style="fill:#6b4386;fill-opacity:1"><path
             d="m 0,0 h -11.205 c -2.966,0 -4.4,1.378 -4.4,4.5 v 9.522 c 0,3.272 1.272,4.462 4.562,4.462 H 4.138 V 14.701 H -10.819 V 3.814 h 10.507 v 3.44 h -7.216 v 3.297 H 4.362 V 4.5 C 4.362,1.378 2.929,0 0,0"
             style="fill:#6b4386;fill-opacity:1;fill-rule:nonzero;stroke:none"
             id="path100" /></g><g
           id="g102"
           transform="translate(433.8906,220.5439)"
           style="fill:#6b4386;fill-opacity:1"><path
             d="m 0,0 v 15.312 c 0,1.913 -1.222,3.147 -3.901,3.147 h -11.854 c -2.68,0 -3.938,-1.234 -3.938,-3.147 V 0 h 4.761 V 7.26 H -4.749 V 0 Z m -4.749,10.625 h -10.183 v 4.051 h 10.183 z"
             style="fill:#6b4386;fill-opacity:1;fill-rule:nonzero;stroke:none"
             id="path104" /></g><g
           id="g106"
           transform="translate(368.2178,235.2139)"
           style="fill:#6b4386;fill-opacity:1"><path
             d="m 0,0 v 3.776 h -15.168 c -3.304,0 -4.575,-1.183 -4.575,-4.474 v -9.51 c 0,-3.122 1.446,-4.506 4.4,-4.506 h 15.28 l 0.038,3.82 h -14.919 v 3.795 h 10.781 v 3.297 H -14.944 V 0 Z"
             style="fill:#6b4386;fill-opacity:1;fill-rule:nonzero;stroke:none"
             id="path108" /></g><g
           id="g110"
           transform="translate(294.7803,229.748)"
           style="fill:#6b4386;fill-opacity:1"><path
             d="m 0,0 c 0,-1.694 -1.371,-3.072 -3.079,-3.072 -1.694,0 -3.078,1.378 -3.078,3.072 0,1.708 1.384,3.085 3.078,3.085 C -1.371,3.085 0,1.708 0,0"
             style="fill:#6b4386;fill-opacity:1;fill-rule:nonzero;stroke:none"
             id="path112" /></g><g
           id="g114"
           transform="translate(457.7344,229.748)"
           style="fill:#6b4386;fill-opacity:1"><path
             d="m 0,0 c 0,-1.694 -1.384,-3.072 -3.079,-3.072 -1.695,0 -3.079,1.378 -3.079,3.072 0,1.708 1.384,3.085 3.079,3.085 C -1.384,3.085 0,1.708 0,0"
             style="fill:#6b4386;fill-opacity:1;fill-rule:nonzero;stroke:none"
             id="path116" /></g><g
           id="g118"
           transform="translate(136.3633,220.8555)"
           style="fill:#6b4386;fill-opacity:1"><path
             d="M 0,0 -9.298,13.105 -10.494,12.563 -10.507,0 h -4.425 v 17.836 h 6.931 L -0.71,7.422 0.499,7.827 0.536,17.836 h 4.45 L 4.986,0 Z"
             style="fill:#6b4386;fill-opacity:1;fill-rule:nonzero;stroke:none"
             id="path120" /></g><g
           id="g122"
           transform="translate(268.0703,225.1182)"
           style="fill:#6b4386;fill-opacity:1"><path
             d="m 0,0 v 9.049 c 0,3.097 -1.296,4.263 -4.362,4.263 h -10.595 c -3.004,0 -4.387,-1.216 -4.387,-4.263 V 0 c 0,-2.973 1.433,-4.263 4.387,-4.263 H -4.362 C -1.384,-4.263 0,-2.998 0,0 m -4.762,-0.661 h -9.771 V 9.703 h 9.771 z"
             style="fill:#6b4386;fill-opacity:1;fill-rule:nonzero;stroke:none"
             id="path124" /></g><g
           id="g126"
           transform="translate(224.3838,220.8555)"
           style="fill:#6b4386;fill-opacity:1"><path
             d="m 0,0 c -3.141,0 -4.998,1.483 -4.998,4.499 v 8.726 c 0,2.841 2.057,4.611 5.186,4.611 H 13.599 V 14.178 H -0.187 V 3.658 H 13.599 V 0 Z"
             style="fill:#6b4386;fill-opacity:1;fill-rule:nonzero;stroke:none"
             id="path128" /></g><g
           id="g130"
           transform="translate(204.8032,220.8555)"
           style="fill:#6b4386;fill-opacity:1"><path
             d="m 0,0 v 9.067 l -0.013,4.606 H -1.77 L -5.846,0 h -4.536 l -4.101,13.673 h -1.72 L -16.191,0 h -4.624 v 17.836 h 8.488 L -8.961,5.234 h 1.707 l 3.39,12.602 h 8.45 V 0 Z"
             style="fill:#6b4386;fill-opacity:1;fill-rule:nonzero;stroke:none"
             id="path132" /></g><g
           id="g134"
           transform="translate(172.6338,220.8555)"
           style="fill:#6b4386;fill-opacity:1"><path
             d="m 0,0 v 14.795 c 0,1.845 -1.234,3.041 -3.914,3.041 h -11.841 c -2.68,0 -3.951,-1.196 -3.951,-3.041 V 0 h 4.762 V 7.018 H -4.761 V 0 Z m -4.362,10.264 h -10.196 v 3.914 h 10.196 z"
             style="fill:#6b4386;fill-opacity:1;fill-rule:nonzero;stroke:none"
             id="path136" /></g></g></g></g></svg>
